dest/img/footer-logo.svg

<?xml version="1.0" encoding="UTF-8"?>
<svg width="69px" height="42px" viewBox="0 0 69 42" version="1.1" xmlns="http://www.w3.org/2000/svg" xmlns:xlink="http://www.w3.org/1999/xlink">
    <!-- Generator: Sketch 61.2 (89653) - https://sketch.com -->
    <title>AJ_Footer_Icon</title>
    <desc>Created with Sketch.</desc>
    <defs>
        <polygon id="path-1" points="5.6796628e-05 0.0812191781 68.2378069 0.0812191781 68.2378069 40.8935722 5.6796628e-05 40.8935722"></polygon>
    </defs>
    <g id="Welcome" stroke="none" stroke-width="1" fill="none" fill-rule="evenodd">
        <g id="Homepage-" transform="translate(-262.000000, -7534.000000)">
            <g id="AJ_Footer_Icon" transform="translate(262.516393, 7533.956262)">
                <g id="Group-3" transform="translate(0.000000, 0.486974)">
                    <mask id="mask-2" fill="white">
                        <use xlink:href="#path-1"></use>
                    </mask>
                    <g id="Clip-2"></g>
                    <path d="M51.4941516,38.8735433 L51.4952876,39.8572609 L51.4941516,38.8735433 C59.6495795,38.8650238 66.2783139,32.2226582 66.2703695,24.0666624 L66.2482117,2.05115342 L1.97033182,2.11590158 L2.00724963,38.9235243 L51.4941516,38.8735433 Z M0.0415183351,40.8937994 L5.6796628e-05,0.150170285 L68.213375,0.0808783983 L68.2378069,24.0643905 C68.247453,33.3057699 60.7366669,40.831891 51.4964235,40.8415465 L0.0415183351,40.8937994 Z" id="Fill-1" fill="#231F20" mask="url(#mask-2)"></path>
                </g>
                <path d="M25.7964037,22.5261674 L29.731842,16.4955015 L29.7375217,22.5221917 L25.7964037,22.5261674 Z M34.3772383,8.77002413 C31.1545976,8.77343193 28.1511919,10.4017913 26.3899285,13.100767 L13.9088694,32.2298713 L19.4692593,32.2236237 L23.0031455,26.8074973 L29.7420654,26.8001137 L29.7477451,32.75808 L34.4010928,32.7529683 L34.3772383,8.77002413 Z" id="Fill-4" fill="#231F20"></path>
                <path d="M51.8674191,8.77019452 L51.8674191,8.76905859 L45.2648111,8.77587418 L47.4702241,8.77473825 L41.2674644,8.78098588 L41.3390281,13.0589079 L47.2186151,13.0526603 L47.2311103,25.3582177 C47.2328142,26.9820333 45.9134286,28.3048268 44.289045,28.3059627 C42.6657974,28.3076666 41.3430039,26.9882809 41.3413,25.3644653 L41.3378922,22.5098668 L36.6851124,22.5144105 L36.6851124,22.5149785 L36.6726172,22.5149785 L36.6726172,22.6047172 L36.6851124,22.5865423 L36.6879523,25.369577 C36.691928,29.5588963 40.1042694,32.9644221 44.2941567,32.9598829 C48.483476,32.9559026 51.8884338,29.5429933 51.8838901,25.353674 L51.8674191,8.80540843 L51.8952494,8.77019452 L51.8674191,8.77019452 Z" id="Fill-6" fill="#231F20"></path>
            </g>
        </g>
    </g>
</svg>

<svg width="69" height="42" viewBox="0 0 69 42" xmlns="http://www.w3.org/2000/svg" xmlns:xlink="http://www.w3.org/1999/xlink"><defs><path id="path-1" d="M0 .081h68.238v40.813H0z"/></defs><g id="Welcome" stroke="none" stroke-width="1" fill="none" fill-rule="evenodd"><g id="Homepage-" transform="translate(-262 -7534)"><g id="AJ_Footer_Icon" transform="translate(262.516 7533.956)"><g id="Group-3" transform="translate(0 .487)"><mask id="mask-2" fill="#fff"><use xlink:href="#path-1"/></mask><path d="M51.494 38.874l.001.983v-.983c8.155-.009 14.783-6.651 14.775-14.807L66.248 2.05 1.97 2.116l.037 36.808 49.487-.05zM.042 40.894L0 .15 68.213.08l.025 23.984c.01 9.242-7.501 16.768-16.742 16.778l-51.454.052z" id="Fill-1" fill="#231F20" mask="url(#mask-2)"/></g><path d="M25.796 22.526l3.936-6.03.006 6.026-3.942.004zM34.377 8.77a9.55 9.55 0 00-7.987 4.33L13.909 32.23l5.56-.006 3.534-5.417 6.74-.007.005 5.958 4.653-.005-.024-23.983z" id="Fill-4" fill="#231F20"/><path d="M51.867 8.77l-6.602.006 2.205-.001-6.203.006.072 4.278 5.88-.006.012 12.305a2.948 2.948 0 01-2.942 2.948 2.948 2.948 0 01-2.948-2.942l-.003-2.854-4.653.004v.001h-.012v.09l.012-.018.003 2.783c.004 4.189 3.416 7.594 7.606 7.59 4.19-.004 7.594-3.417 7.59-7.606l-.017-16.549.028-.035h-.028z" id="Fill-6" fill="#231F20"/></g></g></g></svg>
